images/icons/youtube_icon_small.svg

<svg width="25" height="25" viewBox="0 0 25 25" fill="none" xmlns="http://www.w3.org/2000/svg">
<path d="M11.1112 14.5833L14.7153 12.5L11.1112 10.4167V14.5833ZM19.1389 9.14583C19.2292 9.47222 19.2917 9.90972 19.3334 10.4653C19.382 11.0208 19.4028 11.5 19.4028 11.9167L19.4445 12.5C19.4445 14.0208 19.3334 15.1389 19.1389 15.8542C18.9653 16.4792 18.5625 16.8819 17.9375 17.0556C17.6112 17.1458 17.0139 17.2083 16.0973 17.25C15.1945 17.2986 14.3681 17.3194 13.6042 17.3194L12.5 17.3611C9.59032 17.3611 7.77783 17.25 7.06255 17.0556C6.43755 16.8819 6.03477 16.4792 5.86116 15.8542C5.77088 15.5278 5.70838 15.0903 5.66671 14.5347C5.6181 13.9792 5.59727 13.5 5.59727 13.0833L5.5556 12.5C5.5556 10.9792 5.66671 9.86111 5.86116 9.14583C6.03477 8.52083 6.43755 8.11805 7.06255 7.94444C7.38894 7.85416 7.98616 7.79166 8.90282 7.75C9.8056 7.70139 10.632 7.68055 11.3959 7.68055L12.5 7.63889C15.4098 7.63889 17.2223 7.75 17.9375 7.94444C18.5625 8.11805 18.9653 8.52083 19.1389 9.14583Z" fill="white"/>
</svg>

<svg xmlns="http://www.w3.org/2000/svg" width="25" height="25" fill="none"><path fill="#fff" d="m11.111 14.583 3.604-2.083-3.604-2.083v4.167zm8.028-5.437c.09.326.153.764.195 1.319l.069 1.451.042.583c0 1.521-.111 2.639-.306 3.354-.174.625-.576 1.028-1.201 1.201-.326.09-.924.153-1.84.194l-2.493.069-1.104.042c-2.91 0-4.722-.111-5.437-.306-.625-.174-1.028-.576-1.201-1.201-.09-.326-.153-.764-.194-1.319L5.6 13.082l-.042-.583c0-1.521.111-2.639.306-3.354.174-.625.576-1.028 1.201-1.201.326-.09.924-.153 1.84-.194l2.493-.069 1.104-.042c2.91 0 4.722.111 5.438.306.625.174 1.028.576 1.201 1.201z"/></svg>
